X: 1
T: My Wild Irish Rose (chorus)
C: Music and Lyrics by Chauncey Olcott (1898)
N: Irish-American, composed for the New York theater show "A Romance of Athlone".
M: 3/4
L: 1/4
K: D
A \
| "D"f3 | "A7"f3e \
| "D"d3- | "D7"d2d \
| "G"dd2 | "A7"c2B \
| "D"A3- | A2 F/F/ |
| "G"GAB | "D"A2F \
| "G"GAB | "D"A2c/d/ \
|1 "E7"B3 | f2e \
| "A7"e3- | e2 :|
|2 "E7"Bcd \
| "A7"edc | "D"d3- | d2 \
:|["Coda" "E7"Bcd \
| "A7"d{f}He3/d/ | "D"d3- | d2 |]
